assets/icons/bowtie/uE64B-mail-message.svg

<svg xmlns="http://www.w3.org/2000/svg" viewBox="0 0 448 448"><path d="M0 64v288h448v-288h-448zm405.223 32l-181.223 90.61-181.223-90.61h362.446zm-373.223 224v-193.61l192 96 192-96v193.61h-384z"/></svg>

<svg xmlns="http://www.w3.org/2000/svg" viewBox="0 0 448 448"><path d="M0 64v288h448V64H0zm405.223 32L224 186.61 42.777 96h362.446zM32 320V126.39l192 96 192-96V320H32z"/></svg>
